Papirus/32x32/apps/bibletime.svg

<svg xmlns="http://www.w3.org/2000/svg" width="32" height="32" version="1.1">
 <path style="opacity:0.2" d="M 6.5,3 C 5.669,3 5,3.669 5,4.5 v 25 C 5,30.331 5.669,31 6.5,31 h 19 C 26.331,31 27,30.331 27,29.5 V 4.5 C 27,3.669 26.331,3 25.5,3 Z"/>
 <path style="fill:#3d65c2" d="M 6.5,2 C 5.669,2 5,2.669 5,3.5 v 25 C 5,29.331 5.669,30 6.5,30 h 19 C 26.331,30 27,29.331 27,28.5 V 3.5 C 27,2.669 26.331,2 25.5,2 Z"/>
 <path style="opacity:0.2" d="M 6.5,2 C 5.669,2 5,2.669 5,3.5 v 25 C 5,29.331 5.669,30 6.5,30 H 9 V 2 Z"/>
 <path style="opacity:0.2" d="m 16,7 v 5 h -5 v 4 h 5 v 11 h 4 V 16 h 5 V 12 H 20 V 7 Z"/>
 <rect style="fill:#ffd972" width="4" height="20" x="16" y="6"/>
 <rect style="fill:#ffd972" width="4" height="14" x="11" y="-25" transform="rotate(90)"/>
 <path style="fill:#ffffff;opacity:0.1" d="M 6.5 2 C 5.669 2 5 2.669 5 3.5 L 5 4.5 C 5 3.669 5.669 3 6.5 3 L 25.5 3 C 26.331 3 27 3.669 27 4.5 L 27 3.5 C 27 2.669 26.331 2 25.5 2 L 6.5 2 z"/>
 <circle style="fill:#ff982d" cx="24" cy="23" r="8"/>
 <path style="opacity:0.2;fill-rule:evenodd" d="M 31.979,23.424 A 8,8 0 0 1 24,31 8,8 0 0 1 16.021,23.576 8,8 0 0 0 16,24 a 8,8 0 0 0 8,8 8,8 0 0 0 8,-8 8,8 0 0 0 -0.021,-0.576 z"/>
 <path style="fill:#ffffff" d="M 24 18 A 5 5 0 0 0 19 23 A 5 5 0 0 0 24 28 A 5 5 0 0 0 29 23 A 5 5 0 0 0 24 18 z M 24 19 A 3.9999996 3.9999996 0 0 1 28 23 A 3.9999996 3.9999996 0 0 1 24 27 A 3.9999996 3.9999996 0 0 1 20 23 A 3.9999996 3.9999996 0 0 1 24 19 z"/>
 <path style="fill:#ffffff" d="m 23,20 v 3 1 h 1 3 v -1 h -3 v -3 z"/>
</svg>

<svg xmlns="http://www.w3.org/2000/svg" width="32" height="32" version="1.1">
 <rect style="opacity:0.2" width="22" height="28" x="5" y="3" rx="1.5" ry="1.5"/>
 <rect style="fill:#3d65c2" width="22" height="28" x="5" y="2" rx="1.5" ry="1.5"/>
 <path style="opacity:0.2" d="M 6.5 2 C 5.669 2 5 2.669 5 3.5 L 5 28.5 C 5 29.331 5.669 30 6.5 30 L 9 30 L 9 2 L 6.5 2 z"/>
 <path style="opacity:0.2" d="M 16,7 V 12 H 11 V 16 H 16 V 27 H 20 V 16 H 25 V 12 H 20 V 7 Z"/>
 <path style="fill:#ffd972" d="M 16 6 L 16 11 L 11 11 L 11 15 L 16 15 L 16 26 L 20 26 L 20 15 L 25 15 L 25 11 L 20 11 L 20 6 L 16 6 z"/>
 <circle style="opacity:0.2" cx="24" cy="24" r="8"/>
 <circle style="fill:#ff982d" cx="24" cy="23" r="8"/>
 <path style="fill:#ffffff" d="M 24,18 C 21.239,18 19,20.239 19,23 19,25.761 21.239,28 24,28 26.761,28 29,25.761 29,23 29,20.239 26.761,18 24,18 Z M 24,19 C 26.209,19 28,20.791 28,23 28,25.209 26.209,27 24,27 21.791,27 20,25.209 20,23 20,20.791 21.791,19 24,19 Z M 23,20 V 24 H 27 V 23 H 24 V 20 Z"/>
 <path style="opacity:0.1;fill:#ffffff" d="M 6.5 2 C 5.669 2 5 2.669 5 3.5 L 5 4.5 C 5 3.669 5.669 3 6.5 3 L 25.5 3 C 26.331 3 27 3.669 27 4.5 L 27 3.5 C 27 2.669 26.331 2 25.5 2 L 6.5 2 z"/>
</svg>
